dist/img/program-icon-5.svg

<svg width="111" height="110" viewBox="0 0 111 110" fill="none" xmlns="http://www.w3.org/2000/svg">
<path d="M36.9776 0.468513C34.8473 1.4901 33.7933 3.44443 34.04 5.93176C34.2194 7.57518 34.8921 9.28522 35.9012 10.6621C36.9552 12.0613 42.1127 15.9477 42.9424 15.9477C43.7945 15.9477 48.8848 12.1279 49.9612 10.6843C51.7551 8.26364 52.3606 5.17668 51.4636 3.11131C50.1855 0.157597 46.7994 -0.886195 44.0188 0.823847L42.9424 1.4901L41.8436 0.823847C40.2964 -0.131112 38.5473 -0.264362 36.9776 0.468513ZM39.803 3.73314C40.0273 3.86639 40.543 4.55485 40.9467 5.26551C42.18 7.57518 43.7048 7.57518 44.9382 5.26551C45.9248 3.44443 46.7994 3.06689 47.8085 3.99964C48.4139 4.55485 48.4812 5.46539 47.9879 6.86451C47.4945 8.24143 46.7321 9.10756 44.7364 10.6177L42.9424 11.9724L41.5297 10.9286C38.637 8.75222 37.8745 7.73064 37.6279 5.70968C37.5158 4.75472 37.5606 4.53264 38.0091 4.06626C38.5697 3.46664 39.1303 3.37781 39.803 3.73314Z" fill="black"/>
<path d="M62.0927 0.468513C59.9624 1.4901 58.9085 3.44443 59.1551 5.93176C59.3345 7.57518 60.0073 9.28522 61.0164 10.6621C62.0703 12.0613 67.2279 15.9477 68.0576 15.9477C68.9097 15.9477 74 12.1279 75.0764 10.6843C76.8703 8.26364 77.4758 5.17668 76.5788 3.11131C75.3006 0.157597 71.9145 -0.886195 69.1339 0.823847L68.0576 1.4901L66.9588 0.823847C65.4115 -0.131112 63.6624 -0.264362 62.0927 0.468513ZM64.9182 3.73314C65.1424 3.86639 65.6582 4.55485 66.0618 5.26551C67.2951 7.57518 68.82 7.57518 70.0533 5.26551C71.04 3.44443 71.9145 3.06689 72.9236 3.99964C73.5291 4.55485 73.5964 5.46539 73.103 6.86451C72.6097 8.24143 71.8473 9.10756 69.8515 10.6177L68.0576 11.9724L66.6448 10.9286C63.7521 8.75222 62.9897 7.73064 62.743 5.70968C62.6309 4.75472 62.6758 4.53264 63.1242 4.06626C63.6848 3.46664 64.2455 3.37781 64.9182 3.73314Z" fill="black"/>
<path d="M41.597 20.4116C39.0406 21.2777 39.0406 21.2777 35.4303 21.2777C31.5509 21.2777 30.3848 21.4776 28.3891 22.477C24.577 24.4091 22.4018 29.2727 23.523 33.3813C23.9491 35.0247 24.6218 36.1795 26.7073 38.9333C28.5685 41.3985 29.0842 42.5977 28.2545 42.5977C28.0527 42.5977 27.6491 42.842 27.3576 43.1529C26.8867 43.5971 26.797 43.8858 26.797 45.1073V46.5286L25.2945 46.7951C20.3612 47.6834 17.8273 50.837 17.8273 56.0782V58.2102L16.5491 59.365C15.8315 60.009 14.7552 61.2971 14.1273 62.2299L13.0285 63.9177H11.5036C10.0012 63.9177 10.0012 63.9177 8.54364 65.1392C5.69576 67.5377 2.96 71.4685 1.54727 75.2218C0.291515 78.5086 0 80.3963 0 85.0156V89.1464L0.829697 90.8342C1.83879 92.8552 3.13939 94.121 5.22485 95.076C6.61515 95.72 6.95152 95.7867 9.57515 95.8533L12.4006 95.9421L12.4903 100.428C12.5576 104.492 12.6024 104.981 13.0733 105.891C13.8582 107.468 14.7552 108.423 16.3024 109.245L17.7152 110H28.703L30.1158 109.245C31.6855 108.401 32.3582 107.713 33.2551 106.025C33.8382 104.914 33.8606 104.759 33.9279 100.384L34.0176 95.8977H76.9824L77.0721 100.384C77.1394 104.515 77.1842 104.981 77.6552 105.891C78.44 107.468 79.337 108.423 80.8842 109.245L82.297 110H93.2848L94.6976 109.245C96.2673 108.401 96.94 107.713 97.837 106.025C98.42 104.914 98.4424 104.759 98.5097 100.428L98.5994 95.9421L101.47 95.8533C104.228 95.7645 104.385 95.7423 105.999 94.9428C108.04 93.9656 109.296 92.6775 110.282 90.6121L111 89.1242V85.0156C111 80.3963 110.686 78.4864 109.453 75.2218C108.04 71.4685 105.304 67.5377 102.456 65.1392C100.999 63.9177 100.999 63.9177 99.4739 63.9177H97.9491L97.097 62.5186C96.6261 61.7635 95.46 60.3866 94.4958 59.4538L92.7242 57.766L94.2267 57.0331C98.577 54.9011 103.286 50.9036 106.134 46.9505C107.614 44.863 107.726 44.5076 107.188 43.5083C106.784 42.7088 106.47 42.5977 104.721 42.5977C97.4109 42.5977 90.3697 38.8889 86.2436 32.8483C85.7279 32.0932 85.0103 31.1604 84.6739 30.7607C84.3376 30.3609 83.9339 29.6058 83.777 29.0506C82.6558 25.2086 79.2697 22.2327 75.1661 21.4776C69.6945 20.4782 63.9539 24.4313 62.9 29.9168C62.0703 34.2252 63.7073 40.3547 66.8467 44.7297L67.8109 46.0844L66.3533 46.3287C63.0345 46.8617 60.0073 49.0825 58.5273 51.9696C58.1012 52.8135 57.6976 53.8573 57.6079 54.2793L57.4733 55.0344H53.8182L53.5491 53.7019C53.1903 51.8586 52.4503 50.4595 51.1945 49.1936C49.9164 47.9277 48.3467 47.1726 46.2612 46.7729L44.7364 46.4842V45.085C44.7364 43.8636 44.6691 43.6193 44.1533 43.1529L43.5703 42.6199L44.4 41.3096C44.8485 40.599 45.4764 39.2665 45.7903 38.3559C46.3061 36.9346 46.3733 36.335 46.3958 34.0475C46.3958 32.071 46.3061 31.0272 45.9921 30.0056C45.5885 28.6731 45.5885 28.5843 45.9697 27.6737C46.2836 26.963 46.4182 25.9193 46.4855 23.6762C46.5752 20.6559 46.5751 20.6337 46.0145 20.0785C45.2521 19.3234 44.6915 19.3456 41.597 20.4116ZM42.8752 25.0087C42.7406 26.5411 42.2921 27.5183 41.1709 28.6731C39.9376 29.9612 39.4218 30.161 37.1121 30.161C35.2509 30.161 35.0267 30.2055 34.5333 30.7163C34.0176 31.227 33.9727 31.4047 33.9727 33.6033C33.9727 35.8908 33.9952 35.9796 34.8697 37.7119C35.6545 39.2665 35.7667 39.6662 35.7667 41.0431V42.5977H32.1788V41.4207C32.1788 40.2658 32.1339 40.1548 29.8467 37.1345C27.2006 33.6478 26.6624 32.4263 26.8642 30.5164C27.0885 28.3178 28.3442 26.5189 30.3848 25.4529C31.3042 24.9865 31.7527 24.9421 35.8788 24.8088C39.6909 24.6978 40.543 24.609 41.597 24.2314C42.2697 23.9649 42.8751 23.7428 42.92 23.7428C42.9648 23.7206 42.9424 24.298 42.8752 25.0087ZM76.5564 25.5861C77.6103 26.1191 79.4939 27.7625 79.4939 28.1623C79.4939 28.2511 78.8212 28.3844 77.9915 28.451C75.9958 28.6509 73.6188 29.7835 72.3406 31.1826C71.8024 31.7378 71.0624 32.8483 70.6812 33.67C69.9861 35.1135 69.9636 35.269 69.8515 38.9333L69.7394 42.7088L69.0218 41.4873C66.7345 37.6453 65.6806 32.5373 66.6224 29.7835C67.3848 27.5849 68.9545 25.9859 71.197 25.1864C72.6545 24.6534 75.0539 24.831 76.5564 25.5861ZM80.4582 32.2486C81.5794 32.6484 81.983 33.0259 83.4855 35.1579C87.477 40.821 94.4733 45.1295 100.819 45.8401C101.537 45.929 102.142 46.0622 102.142 46.1733C102.142 46.5952 98.8236 49.8154 96.9848 51.1701C94.6751 52.9024 90.863 54.8123 88.1273 55.5896C84.5842 56.6112 82.4315 56.811 75.1885 56.811C71.5109 56.811 68.5061 56.7666 68.5061 56.7222C68.5061 56.6556 68.7976 56.167 69.1564 55.6562C70.0982 54.2571 71.5109 51.3922 72.0491 49.7044C73.0806 46.6174 73.2824 45.2405 73.417 40.4879C73.5739 35.1801 73.6861 34.7582 75.3679 33.2924C76.8703 31.9821 78.6642 31.6268 80.4582 32.2486ZM42.9424 33.9365C42.9424 36.4016 41.6867 39.5552 40.117 41.0653L39.3545 41.7982V40.1992C39.3545 38.7557 39.2648 38.4003 38.4576 36.8235C37.9642 35.8464 37.5606 34.7582 37.5606 34.3806C37.5606 33.7366 37.583 33.7144 38.6594 33.7144C39.7358 33.7144 41.283 33.2036 42.1576 32.5373C42.763 32.071 42.9424 32.4041 42.9424 33.9365ZM41.1485 47.3503C41.1485 49.1492 41.4624 49.4157 44.4224 50.0375C45.7903 50.3262 47.2255 50.7038 47.5842 50.9036C48.8848 51.5699 50.1182 53.4132 50.1182 54.7457C50.1182 54.9455 47.1133 55.0344 37.4036 55.101C24.3079 55.1676 24.6442 55.1454 21.9309 56.0115C21.46 56.167 21.4152 56.1004 21.4152 55.3231C21.4152 54.0128 21.8188 52.8802 22.5812 52.014C23.5455 50.9258 24.2406 50.6371 27.1109 50.0375C30.0709 49.4157 30.3848 49.1492 30.3848 47.3503V46.151H41.1485V47.3503ZM67.8782 50.5483C67.4745 51.4366 65.9945 53.9906 65.5012 54.6568C65.2321 54.99 64.8958 55.0344 63.1467 54.99L61.1061 54.9233L61.6442 53.7907C62.7206 51.5033 65.2097 49.8154 67.6539 49.7266L68.2594 49.7044L67.8782 50.5483ZM62.7655 59.1429C63.0794 60.4088 63.0794 60.4088 73.9327 60.2978C82.4764 60.2311 84.1582 60.1645 85.9745 59.8092L88.0824 59.3872L89.3382 60.0535C90.5939 60.6975 93.8455 63.5402 93.5988 63.7845C93.5315 63.8511 76.3321 63.8955 55.3655 63.8733L17.2667 63.8067L18.3879 62.6074C20.2042 60.6531 22.94 59.1651 25.4515 58.7432C25.7655 58.6988 34.2418 58.6321 44.3103 58.6099L62.6309 58.5877L62.7655 59.1429ZM98.5546 87.7028L99.1152 88.2358C99.6533 88.7911 99.7206 88.791 103.376 88.791C105.416 88.791 107.076 88.8355 107.076 88.9021C107.076 88.9909 106.941 89.3018 106.762 89.635C106.291 90.5233 105.304 91.3672 104.161 91.878C103.152 92.3222 102.95 92.3444 55.6345 92.3444C20.2267 92.3444 7.89333 92.2778 7.26545 92.0779C5.92 91.7003 3.92424 89.7904 3.92424 88.9021C3.92424 88.8355 5.58364 88.791 7.62424 88.791C11.2794 88.791 11.3467 88.7911 11.8848 88.2358L12.4455 87.7028V67.471H98.5546V87.7028ZM8.85758 74.1335V78.1311H6.61515C5.38182 78.1311 4.37273 78.0866 4.37273 78.02C4.37273 77.6869 5.62848 74.711 6.21151 73.6894C6.90667 72.4457 8.56606 70.136 8.74545 70.136C8.81273 70.136 8.85758 71.9349 8.85758 74.1335ZM103.847 72.157C104.766 73.5339 106.089 76.2655 106.515 77.6203C106.65 78.131 106.627 78.1311 104.407 78.1311H102.142V74.1113C102.142 69.5142 102.098 69.5586 103.847 72.157ZM8.85758 85.2377H3.47576V83.8164C3.47576 81.5956 3.36364 81.6844 6.30121 81.6844H8.85758V85.2377ZM107.39 82.0397C107.457 82.2396 107.524 83.0391 107.524 83.8164V85.2377H102.142V81.6844H104.699C106.829 81.6844 107.278 81.751 107.39 82.0397ZM30.34 100.095C30.2727 104.692 30.2055 104.892 28.7255 105.98C28.1424 106.424 27.8061 106.447 23.2091 106.447C18.6121 106.447 18.2758 106.424 17.6927 105.98C16.2127 104.892 16.1455 104.692 16.0782 100.095L16.0109 95.8977H30.4073L30.34 100.095ZM94.9218 100.095C94.8545 104.692 94.7873 104.892 93.3073 105.98C92.7242 106.424 92.3879 106.447 87.7909 106.447C83.1939 106.447 82.8576 106.424 82.2745 105.98C80.7945 104.892 80.7273 104.692 80.66 100.095L80.5927 95.8977H94.9891L94.9218 100.095Z" fill="black"/>
<path d="M21.4151 71.3131C20.9891 71.4463 20.1145 72.0682 19.5091 72.69C17.917 74.2446 17.4685 75.9102 18.0964 77.9978C18.4552 79.2193 20.3164 81.0625 21.5497 81.4179C22.2224 81.6178 25.5188 81.6844 33.6139 81.6844H44.7364V84.6825C44.7364 87.5918 44.7588 87.7251 45.297 88.2358L45.8352 88.791H65.1648L65.703 88.2358C66.2412 87.7251 66.2636 87.5918 66.2636 84.6825V81.6844H77.4309C90.2576 81.6844 90.0333 81.7066 91.6703 79.9077C92.2085 79.3303 92.7691 78.442 92.9036 77.9534C93.4867 76.0435 93.083 74.3556 91.6703 72.801C89.9212 70.8689 92.9485 71.0244 55.4103 71.0466C31.8873 71.0688 21.9758 71.1354 21.4151 71.3131ZM89.0242 75.1329C89.383 75.466 89.5848 75.9324 89.5848 76.3544C89.5848 76.7763 89.383 77.2427 89.0242 77.5758L88.4861 78.1311H22.5139L21.9758 77.5758C21.617 77.2427 21.4151 76.7763 21.4151 76.3544C21.4151 75.9324 21.617 75.466 21.9758 75.1329L22.5139 74.5777H88.4861L89.0242 75.1329ZM62.6758 85.2377H48.3242V81.6844H62.6758V85.2377Z" fill="black"/>
</svg>

<svg width="111" height="110" fill="none" xmlns="http://www.w3.org/2000/svg"><path d="M36.978.469c-2.13 1.021-3.185 2.975-2.938 5.463.18 1.643.852 3.353 1.861 4.73 1.054 1.4 6.212 5.286 7.041 5.286.852 0 5.943-3.82 7.02-5.264 1.793-2.42 2.399-5.507 1.502-7.573C50.185.158 46.799-.886 44.019.824l-1.077.666-1.098-.666c-1.548-.955-3.297-1.088-4.866-.355Zm2.825 3.264c.224.133.74.822 1.144 1.533 1.233 2.31 2.758 2.31 3.991 0 .987-1.822 1.861-2.2 2.87-1.266.606.555.673 1.465.18 2.865-.493 1.376-1.256 2.243-3.252 3.753l-1.794 1.354-1.412-1.043c-2.893-2.177-3.656-3.198-3.902-5.22-.112-.954-.067-1.176.381-1.643.56-.6 1.121-.688 1.794-.333ZM62.093.469c-2.13 1.021-3.185 2.975-2.938 5.463.18 1.643.852 3.353 1.861 4.73 1.054 1.4 6.212 5.286 7.042 5.286.852 0 5.942-3.82 7.018-5.264 1.794-2.42 2.4-5.507 1.503-7.573C75.3.158 71.915-.886 69.134.824l-1.076.666-1.1-.666c-1.546-.955-3.296-1.088-4.865-.355Zm2.825 3.264c.224.133.74.822 1.144 1.533 1.233 2.31 2.758 2.31 3.991 0 .987-1.822 1.862-2.2 2.87-1.266.606.555.673 1.465.18 2.865-.493 1.376-1.256 2.243-3.251 3.753l-1.794 1.354-1.413-1.043c-2.893-2.177-3.655-3.198-3.902-5.22-.112-.954-.067-1.176.381-1.643.56-.6 1.122-.688 1.794-.333ZM41.597 20.412c-2.556.866-2.556.866-6.167.866-3.88 0-5.045.2-7.04 1.199-3.813 1.932-5.988 6.796-4.867 10.904.426 1.644 1.099 2.798 3.184 5.552 1.861 2.465 2.377 3.665 1.547 3.665-.201 0-.605.244-.896.555-.471.444-.561.733-.561 1.954v1.422l-1.503.266c-4.933.888-7.467 4.042-7.467 9.283v2.132l-1.278 1.155c-.717.644-1.794 1.932-2.422 2.865l-1.099 1.688h-1.524c-1.503 0-1.503 0-2.96 1.221-2.848 2.399-5.584 6.33-6.997 10.083C.292 78.509 0 80.396 0 85.016v4.13l.83 1.688c1.009 2.021 2.31 3.287 4.395 4.242 1.39.644 1.727.71 4.35.777l2.826.09.09 4.485c.067 4.064.111 4.553.582 5.463.785 1.577 1.682 2.532 3.23 3.354l1.412.755h10.988l1.413-.755c1.57-.844 2.242-1.532 3.14-3.22.582-1.111.605-1.266.672-5.641l.09-4.486h42.964l.09 4.486c.067 4.131.112 4.597.583 5.507.785 1.577 1.682 2.532 3.23 3.354l1.412.755h10.988l1.413-.755c1.57-.844 2.242-1.532 3.139-3.22.583-1.111.605-1.266.673-5.597l.09-4.486 2.87-.089c2.758-.088 2.915-.11 4.529-.91 2.041-.977 3.297-2.266 4.283-4.33l.718-1.489v-4.108c0-4.62-.314-6.53-1.547-9.794-1.413-3.753-4.149-7.684-6.997-10.083-1.457-1.221-1.457-1.221-2.982-1.221h-1.525l-.852-1.4c-.47-.755-1.637-2.131-2.601-3.064l-1.772-1.688 1.503-.733c4.35-2.132 9.059-6.13 11.907-10.083 1.48-2.087 1.592-2.442 1.054-3.442-.404-.8-.718-.91-2.467-.91-7.31 0-14.351-3.71-18.477-9.75a31.96 31.96 0 0 0-1.57-2.087c-.336-.4-.74-1.155-.897-1.71-1.121-3.842-4.507-6.818-8.61-7.573-5.472-1-11.213 2.953-12.267 8.439-.83 4.308.807 10.438 3.947 14.813l.964 1.354-1.458.245c-3.318.533-6.346 2.754-7.826 5.64-.426.844-.83 1.888-.92 2.31l-.134.755h-3.655l-.269-1.332c-.359-1.843-1.099-3.242-2.355-4.508-1.278-1.266-2.847-2.021-4.933-2.421l-1.525-.289v-1.399c0-1.221-.067-1.466-.583-1.932l-.583-.533.83-1.31c.449-.711 1.076-2.044 1.39-2.954.516-1.421.583-2.021.606-4.309 0-1.976-.09-3.02-.404-4.041-.403-1.333-.403-1.422-.022-2.332.314-.711.448-1.755.516-3.998.09-3.02.09-3.042-.471-3.598-.763-.755-1.324-.732-4.418.334Zm1.278 4.597c-.134 1.532-.583 2.51-1.704 3.664-1.233 1.288-1.75 1.488-4.059 1.488-1.861 0-2.085.044-2.579.555-.515.511-.56.689-.56 2.887 0 2.288.022 2.377.897 4.109.785 1.554.897 1.954.897 3.331v1.555h-3.588V41.42c0-1.155-.045-1.266-2.332-4.286-2.646-3.487-3.185-4.709-2.983-6.619.224-2.198 1.48-3.997 3.52-5.063.92-.466 1.369-.51 5.495-.644 3.812-.111 4.664-.2 5.718-.578.673-.266 1.278-.488 1.323-.488.045-.022.022.555-.045 1.266Zm33.681.577c1.054.533 2.938 2.177 2.938 2.576 0 .09-.673.222-1.502.289-1.996.2-4.373 1.332-5.651 2.732-.539.555-1.279 1.665-1.66 2.487-.695 1.444-.717 1.599-.83 5.263l-.112 3.776-.717-1.222c-2.288-3.842-3.341-8.95-2.4-11.704.763-2.198 2.332-3.797 4.575-4.597 1.457-.533 3.857-.355 5.36.4Zm3.902 6.663c1.121.4 1.525.777 3.028 2.909 3.991 5.663 10.987 9.971 17.333 10.682.718.089 1.323.222 1.323.333 0 .422-3.318 3.642-5.157 4.997-2.31 1.732-6.122 3.642-8.858 4.42-3.543 1.021-5.695 1.221-12.938 1.221-3.678 0-6.683-.044-6.683-.089 0-.066.292-.555.65-1.066.942-1.399 2.355-4.264 2.893-5.952 1.032-3.087 1.233-4.464 1.368-9.216.157-5.308.27-5.73 1.95-7.196 1.503-1.31 3.297-1.665 5.091-1.043Zm-37.516 1.688c0 2.465-1.255 5.618-2.825 7.128l-.762.733V40.2c0-1.443-.09-1.799-.897-3.375-.494-.978-.897-2.066-.897-2.443 0-.644.022-.667 1.098-.667 1.077 0 2.624-.51 3.499-1.177.605-.466.784-.133.784 1.4ZM41.148 47.35c0 1.8.314 2.066 3.274 2.688 1.368.288 2.803.666 3.162.866 1.3.666 2.534 2.51 2.534 3.842 0 .2-3.005.288-12.714.355-13.096.067-12.76.044-15.473.91-.471.156-.516.09-.516-.688 0-1.31.404-2.443 1.166-3.309.965-1.088 1.66-1.377 4.53-1.977 2.96-.621 3.274-.888 3.274-2.687v-1.199h10.763v1.2Zm26.73 3.198c-.403.889-1.883 3.443-2.377 4.109-.269.333-.605.377-2.354.333l-2.04-.067.537-1.132c1.077-2.288 3.566-3.976 6.01-4.064l.605-.023-.38.844Zm-5.112 8.595c.313 1.266.313 1.266 11.167 1.155 8.543-.067 10.225-.134 12.041-.489l2.108-.422 1.256.666c1.256.645 4.508 3.487 4.26 3.732-.067.066-17.266.11-38.233.088l-38.098-.066 1.12-1.2c1.817-1.954 4.553-3.442 7.064-3.864.314-.044 8.79-.11 18.86-.133l18.32-.022.135.555Zm35.789 28.56.56.533c.538.555.606.555 4.261.555 2.04 0 3.7.044 3.7.111 0 .089-.135.4-.314.733-.471.888-1.458 1.732-2.601 2.243-1.009.444-1.211.466-48.526.466-35.408 0-47.742-.066-48.37-.266-1.345-.378-3.34-2.288-3.34-3.176 0-.067 1.659-.111 3.7-.111 3.654 0 3.722 0 4.26-.555l.56-.533V67.47h86.11v20.232ZM8.858 74.133v3.998H6.615c-1.233 0-2.242-.044-2.242-.111 0-.333 1.255-3.309 1.839-4.33.695-1.244 2.354-3.554 2.533-3.554.068 0 .113 1.799.113 3.998Zm94.989-1.976c.919 1.377 2.242 4.109 2.668 5.463.135.511.112.511-2.108.511h-2.265v-4.02c0-4.597-.044-4.552 1.705-1.954Zm-94.99 13.08h-5.38v-1.42c0-2.221-.112-2.133 2.825-2.133h2.557v3.554Zm98.533-3.197c.067.2.134 1 .134 1.776v1.422h-5.382v-3.554h2.557c2.13 0 2.579.067 2.691.356Zm-77.05 18.055c-.067 4.597-.134 4.797-1.614 5.885-.584.444-.92.467-5.517.467s-4.933-.023-5.516-.467c-1.48-1.088-1.548-1.288-1.615-5.885l-.067-4.197h14.396l-.067 4.197Zm64.582 0c-.067 4.597-.135 4.797-1.615 5.885-.583.444-.92.467-5.516.467-4.597 0-4.933-.023-5.516-.467-1.48-1.088-1.548-1.288-1.615-5.885l-.067-4.197h14.396l-.067 4.197Z" fill="#000"/><path d="M21.415 71.313c-.426.133-1.3.755-1.906 1.377-1.592 1.555-2.04 3.22-1.413 5.308.36 1.221 2.22 3.064 3.454 3.42.672.2 3.969.266 12.064.266h11.122v2.999c0 2.909.023 3.042.561 3.553l.538.555h19.33l.538-.555c.538-.51.56-.644.56-3.553v-2.999h11.168c12.827 0 12.602.023 14.24-1.776.537-.578 1.098-1.466 1.233-1.955.583-1.91.179-3.597-1.234-5.152-1.749-1.932 1.278-1.777-36.26-1.754-23.523.022-33.434.088-33.995.266Zm67.61 3.82c.358.333.56.8.56 1.221 0 .422-.202.889-.56 1.222l-.539.555H22.514l-.538-.555c-.359-.333-.56-.8-.56-1.222 0-.422.201-.888.56-1.221l.538-.555h65.972l.538.555Zm-26.35 10.105h-14.35v-3.554h14.35v3.554Z" fill="#000"/></svg>
